icons/1_Primary/HP.svg

<svg xmlns="http://www.w3.org/2000/svg" width="1024" height="1024" fill="none">
   <g clip-path="url(#a)">
      <path fill="#9ABEFF" d="M512 1024c282.77 0 512-229.23 512-512S794.77 0 512 0 0 229.23 0 512s229.23 512 512 512Z"/>
      <path fill="#fff" d="M512 768h-7.55l52.48-143.89h71.94c12.74 0 26.65-9.56 31-21.48l56.83-155.82c9.15-25.43-5.16-46.51-32.6-46.51H584l-131.2 361C339.9 734.17 256 632.79 256 512c0-117.27 79.1-216.26 186.84-246.46L312.45 624.09h54.06l69.16-190.42h41l-69.22 190.42h54.08l64.79-177.71c9.13-25.43-5.16-46.51-32.6-46.51H448l52.48-143.47c4 0 7.55-.41 11.52-.41 141.53 0 256 114.47 256 256S653.53 768 512 768Zm155-334.31h-41l-57.15 156.58h40.94L667 433.69Z"/>
   </g>
   <defs>
      <clipPath id="a">
         <path fill="#fff" d="M0 0h1024v1024H0z"/>
      </clipPath>
   </defs>
</svg>

<svg width="1024" height="1024" viewBox="0 0 1024 1024" fill="none" xmlns="http://www.w3.org/2000/svg">
<g clip-path="url(#clip0_2_2445)">
<path d="M512 1024C794.77 1024 1024 794.77 1024 512C1024 229.23 794.77 0 512 0C229.23 0 0 229.23 0 512C0 794.77 229.23 1024 512 1024Z" fill="#9ABEFF"/>
<path d="M512 768H504.45L556.93 624.11H628.87C641.61 624.11 655.52 614.55 659.87 602.63L716.7 446.81C725.85 421.38 711.54 400.3 684.1 400.3H584L452.8 761.3C339.9 734.17 256 632.79 256 512C256 394.73 335.1 295.74 442.84 265.54L312.45 624.09H366.51L435.67 433.67H476.67L407.45 624.09H461.53L526.32 446.38C535.45 420.95 521.16 399.87 493.72 399.87H448L500.48 256.4C504.48 256.4 508.03 255.99 512 255.99C653.53 255.99 768 370.46 768 511.99C768 653.52 653.53 768 512 768ZM667 433.69H626L568.85 590.27H609.79L667 433.69Z" fill="white"/>
</g>
<defs>
<clipPath id="clip0_2_2445">
<rect width="1024" height="1024" fill="white"/>
</clipPath>
</defs>
</svg>
